src/assets/duotone/ArrowDown.svg

<svg width="24" height="24" viewBox="0 0 24 24"  xmlns="http://www.w3.org/2000/svg">
<path opacity="0.4" d="M12 22C17.5228 22 22 17.5228 22 12C22 6.47715 17.5228 2 12 2C6.47715 2 2 6.47715 2 12C2 17.5228 6.47715 22 12 22Z" />
<path d="M15.5299 11.97C15.2399 11.68 14.7599 11.68 14.4699 11.97L12.7499 13.69V8.5C12.7499 8.09 12.4099 7.75 11.9999 7.75C11.5899 7.75 11.2499 8.09 11.2499 8.5V13.69L9.52994 11.97C9.23994 11.68 8.75994 11.68 8.46994 11.97C8.17994 12.26 8.17994 12.74 8.46994 13.03L11.4699 16.03C11.6199 16.18 11.8099 16.25 11.9999 16.25C12.1899 16.25 12.3799 16.18 12.5299 16.03L15.5299 13.03C15.8199 12.74 15.8199 12.26 15.5299 11.97Z" />
</svg>

<?xml version="1.0" encoding="UTF-8"?>
<svg width="24" height="24" viewBox="0 0 24 24" xmlns="http://www.w3.org/2000/svg">
 <path d="m12 22c5.5228 0 10-4.4772 10-10 0-5.5228-4.4772-10-10-10-5.5228 0-10 4.4772-10 10 0 5.5228 4.4772 10 10 10z" opacity=".4"/>
 <path d="m15.53 11.97c-0.29-0.29-0.77-0.29-1.06 0l-1.72 1.72v-5.19c0-0.41-0.34-0.75-0.75-0.75s-0.75 0.34-0.75 0.75v5.19l-1.72-1.72c-0.29-0.29-0.77-0.29-1.06 0s-0.29 0.77 0 1.06l3 3c0.15 0.15 0.34 0.22 0.53 0.22s0.38-0.07 0.53-0.22l3-3c0.29-0.29 0.29-0.77 0-1.06z"/>
</svg>
